packages/icons/raw/imported/SecurityQrCode.svg

<svg width="32" height="32" viewBox="0 0 32 32" fill="none" xmlns="http://www.w3.org/2000/svg">
<path d="M15.2517 13.2531C15.2517 13.5293 15.4756 13.7531 15.7517 13.7531C16.0278 13.7531 16.2517 13.5293 16.2517 13.2531H15.2517ZM16.2517 9.79636C16.2517 9.52021 16.0278 9.29636 15.7517 9.29636C15.4756 9.29636 15.2517 9.52021 15.2517 9.79636H16.2517ZM15.8771 19.6111V19.1111H15.3771V19.6111H15.8771ZM18.8884 19.6111V20.1111H19.3884V19.6111H18.8884ZM15.8771 15.4136H16.3771V14.9136H15.8771V15.4136ZM10.7763 16.0371C11.0524 16.0371 11.2763 15.8132 11.2763 15.5371C11.2763 15.2609 11.0524 15.0371 10.7763 15.0371V16.0371ZM9.05554 15.0371C8.7794 15.0371 8.55554 15.2609 8.55554 15.5371C8.55554 15.8132 8.7794 16.0371 9.05554 16.0371V15.0371ZM19.7488 16.0371C20.0249 16.0371 20.2488 15.8132 20.2488 15.5371C20.2488 15.2609 20.0249 15.0371 19.7488 15.0371V16.0371ZM18.028 15.0371C17.7519 15.0371 17.528 15.2609 17.528 15.5371C17.528 15.8132 17.7519 16.0371 18.028 16.0371V15.0371ZM22.9444 16.0371C23.2206 16.0371 23.4444 15.8132 23.4444 15.5371C23.4444 15.2609 23.2206 15.0371 22.9444 15.0371V16.0371ZM21.2237 15.0371C20.9475 15.0371 20.7237 15.2609 20.7237 15.5371C20.7237 15.8132 20.9475 16.0371 21.2237 16.0371V15.0371ZM9.1173 18.5V18H8.6173V18.5H9.1173ZM13.4192 18.5H13.9192V18H13.4192V18.5ZM13.4192 22.821V23.321H13.9192V22.821H13.4192ZM9.1173 22.821H8.6173V23.321H9.1173V22.821ZM9.1173 9.05556V8.55556H8.6173V9.05556H9.1173ZM13.4192 9.05556H13.9192V8.55556H13.4192V9.05556ZM13.4192 13.3765V13.8765H13.9192V13.3765H13.4192ZM9.1173 13.3765H8.6173V13.8765H9.1173V13.3765ZM18.5196 9.05556V8.55556H18.0196V9.05556H18.5196ZM22.8215 9.05556H23.3215V8.55556H22.8215V9.05556ZM22.8215 13.3765V13.8765H23.3215V13.3765H22.8215ZM18.5196 13.3765H18.0196V13.8765H18.5196V13.3765ZM11 6.5C11.2761 6.5 11.5 6.27614 11.5 6C11.5 5.72386 11.2761 5.5 11 5.5V6.5ZM5.5 11C5.5 11.2761 5.72386 11.5 6 11.5C6.27614 11.5 6.5 11.2761 6.5 11H5.5ZM11 26.5C11.2761 26.5 11.5 26.2761 11.5 26C11.5 25.7239 11.2761 25.5 11 25.5V26.5ZM6.5 21C6.5 20.7239 6.27614 20.5 6 20.5C5.72386 20.5 5.5 20.7239 5.5 21H6.5ZM21 5.5C20.7239 5.5 20.5 5.72386 20.5 6C20.5 6.27614 20.7239 6.5 21 6.5V5.5ZM25.5 11C25.5 11.2761 25.7239 11.5 26 11.5C26.2761 11.5 26.5 11.2761 26.5 11H25.5ZM21 25.5C20.7239 25.5 20.5 25.7239 20.5 26C20.5 26.2761 20.7239 26.5 21 26.5V25.5ZM26.5 21C26.5 20.7239 26.2761 20.5 26 20.5C25.7239 20.5 25.5 20.7239 25.5 21H26.5ZM16.2517 13.2531V9.79636H15.2517V13.2531H16.2517ZM16.3771 22.9444V19.6111H15.3771V22.9444H16.3771ZM15.8771 20.1111H18.8884V19.1111H15.8771V20.1111ZM19.3884 19.6111V17.8828H18.3884V19.6111H19.3884ZM21.4533 18.5V16.7716H20.4533V18.5H21.4533ZM23.2232 21.2778V18.2531H22.2232V21.2778H23.2232ZM21.4533 22.9444V21.2161H20.4533V22.9444H21.4533ZM13.296 15.9136H15.8771V14.9136H13.296V15.9136ZM15.3771 15.4136V17.9444H16.3771V15.4136H15.3771ZM10.7763 15.0371H9.05554V16.0371H10.7763V15.0371ZM19.7488 15.0371H18.028V16.0371H19.7488V15.0371ZM22.9444 15.0371H21.2237V16.0371H22.9444V15.0371ZM9.1173 19H13.4192V18H9.1173V19ZM12.9192 18.5V22.821H13.9192V18.5H12.9192ZM13.4192 22.321H9.1173V23.321H13.4192V22.321ZM9.6173 22.821V18.5H8.6173V22.821H9.6173ZM9.1173 9.55556H13.4192V8.55556H9.1173V9.55556ZM12.9192 9.05556V13.3765H13.9192V9.05556H12.9192ZM13.4192 12.8765H9.1173V13.8765H13.4192V12.8765ZM9.6173 13.3765V9.05556H8.6173V13.3765H9.6173ZM18.5196 9.55556H22.8215V8.55556H18.5196V9.55556ZM22.3215 9.05556V13.3765H23.3215V9.05556H22.3215ZM22.8215 12.8765H18.5196V13.8765H22.8215V12.8765ZM19.0196 13.3765V9.05556H18.0196V13.3765H19.0196ZM7.66667 6.5H11V5.5H7.66667V6.5ZM6.5 11V7.66667H5.5V11H6.5ZM7.66667 5.5C6.47005 5.5 5.5 6.47005 5.5 7.66667H6.5C6.5 7.02233 7.02233 6.5 7.66667 6.5V5.5ZM7.66667 26.5H11V25.5H7.66667V26.5ZM5.5 21V24.3333H6.5V21H5.5ZM7.66667 25.5C7.02233 25.5 6.5 24.9777 6.5 24.3333H5.5C5.5 25.53 6.47005 26.5 7.66667 26.5V25.5ZM24.3333 5.5H21V6.5H24.3333V5.5ZM26.5 11V7.66667H25.5V11H26.5ZM24.3333 6.5C24.9777 6.5 25.5 7.02233 25.5 7.66667H26.5C26.5 6.47005 25.53 5.5 24.3333 5.5V6.5ZM24.3333 25.5H21V26.5H24.3333V25.5ZM25.5 21V24.3333H26.5V21H25.5ZM24.3333 26.5C25.5299 26.5 26.5 25.5299 26.5 24.3333H25.5C25.5 24.9777 24.9777 25.5 24.3333 25.5V26.5Z" fill="black"/>
</svg>

<svg width="32" height="32" fill="none" xmlns="http://www.w3.org/2000/svg"><path d="M15.252 13.253a.5.5 0 1 0 1 0h-1Zm1-3.457a.5.5 0 0 0-1 0h1Zm-.375 9.815v-.5h-.5v.5h.5Zm3.011 0v.5h.5v-.5h-.5Zm-3.01-4.197h.5v-.5h-.5v.5Zm-5.102.623a.5.5 0 0 0 0-1v1Zm-1.72-1a.5.5 0 1 0 0 1v-1Zm10.693 1a.5.5 0 0 0 0-1v1Zm-1.721-1a.5.5 0 1 0 0 1v-1Zm4.916 1a.5.5 0 1 0 0-1v1Zm-1.72-1a.5.5 0 1 0 0 1v-1ZM9.117 18.5V18h-.5v.5h.5Zm4.302 0h.5V18h-.5v.5Zm0 4.321v.5h.5v-.5h-.5Zm-4.302 0h-.5v.5h.5v-.5Zm0-13.765v-.5h-.5v.5h.5Zm4.302 0h.5v-.5h-.5v.5Zm0 4.32v.5h.5v-.5h-.5Zm-4.302 0h-.5v.5h.5v-.5Zm9.403-4.32v-.5h-.5v.5h.5Zm4.302 0h.5v-.5h-.5v.5Zm0 4.32v.5h.5v-.5h-.5Zm-4.302 0h-.5v.5h.5v-.5ZM11 6.5a.5.5 0 0 0 0-1v1ZM5.5 11a.5.5 0 0 0 1 0h-1ZM11 26.5a.5.5 0 0 0 0-1v1ZM6.5 21a.5.5 0 0 0-1 0h1ZM21 5.5a.5.5 0 0 0 0 1v-1Zm4.5 5.5a.5.5 0 0 0 1 0h-1ZM21 25.5a.5.5 0 0 0 0 1v-1Zm5.5-4.5a.5.5 0 0 0-1 0h1Zm-10.248-7.747V9.796h-1v3.457h1Zm.125 9.691v-3.333h-1v3.333h1Zm-.5-2.833h3.011v-1h-3.01v1Zm3.511-.5v-1.728h-1v1.728h1Zm2.065-1.111v-1.728h-1V18.5h1Zm1.77 2.778v-3.025h-1v3.025h1Zm-1.77 1.666v-1.728h-1v1.728h1Zm-8.157-7.03h2.581v-1h-2.581v1Zm2.081-.5v2.53h1v-2.53h-1Zm-4.6-.377H9.055v1h1.72v-1Zm8.972 0h-1.721v1h1.72v-1Zm3.195 0h-1.72v1h1.72v-1ZM9.117 19h4.302v-1H9.117v1Zm3.802-.5v4.321h1V18.5h-1Zm.5 3.821H9.117v1h4.302v-1Zm-3.802.5V18.5h-1v4.321h1Zm-.5-13.265h4.302v-1H9.117v1Zm3.802-.5v4.32h1v-4.32h-1Zm.5 3.82H9.117v1h4.302v-1Zm-3.802.5v-4.32h-1v4.32h1Zm8.903-3.82h4.302v-1H18.52v1Zm3.802-.5v4.32h1v-4.32h-1Zm.5 3.82H18.52v1h4.302v-1Zm-3.802.5v-4.32h-1v4.32h1ZM7.667 6.5H11v-1H7.667v1ZM6.5 11V7.667h-1V11h1Zm1.167-5.5C6.47 5.5 5.5 6.47 5.5 7.667h1c0-.645.522-1.167 1.167-1.167v-1Zm0 21H11v-1H7.667v1ZM5.5 21v3.333h1V21h-1Zm2.167 4.5A1.167 1.167 0 0 1 6.5 24.333h-1c0 1.197.97 2.167 2.167 2.167v-1Zm16.666-20H21v1h3.333v-1ZM26.5 11V7.667h-1V11h1Zm-2.167-4.5c.645 0 1.167.522 1.167 1.167h1c0-1.197-.97-2.167-2.167-2.167v1Zm0 19H21v1h3.333v-1ZM25.5 21v3.333h1V21h-1Zm-1.167 5.5c1.197 0 2.167-.97 2.167-2.167h-1c0 .645-.522 1.167-1.167 1.167v1Z" fill="#000"/></svg>
